!!!COM:	Bach, Johann Sebastian
!!!CDT:	1685/02/21/-1750/07/28/
!!!OTL@@DE:	Jesu, deine tiefen Wunden
!!!SCT:	BWV 194/6
!!!PC#:	256
!!!AGN:	chorale
**kern	**kern	**kern	**kern
*ICvox	*ICvox	*ICvox	*ICvox
*Ibass	*Itenor	*Ialto	*Isoprn
*I"Bass	*I"Tenor	*I"Alto	*I"Soprano
*>[A,A,B]	*>[A,A,B]	*>[A,A,B]	*>[A,A,B]
*>norep[A,B]	*>norep[A,B]	*>norep[A,B]	*>norep[A,B]
*>A	*>A	*>A	*>A
*clefF4	*clefGv2	*clefG2	*clefG2
*k[b-e-]	*k[b-e-]	*k[b-e-]	*k[b-e-]
*B-:	*B-:	*B-:	*B-:
*M4/4	*M4/4	*M4/4	*M4/4
*met(c)	*met(c)	*met(c)	*met(c)
*MM100	*MM100	*MM100	*MM100
=1-	=1-	=1-	=1-
4B-	4d	4f	4b-
4F	4A	4f	4cc
4BB-	8B-L	4.f	4dd
.	8AJ	.	.
4C	4G	.	4cc
.	.	8e	.
=2	=2	=2	=2
8DL	8FL	4d	4b-
8EJ	8GJ	.	.
4F	8.AL	8cL	4a
.	.	8fJ	.
.	16B-Jk	.	.
8cL	8cL	8fL	4g
8CJ	8GJ	8eJ	.
4F;	4A;	4f;	4f;
=3	=3	=3	=3
4G	4B-	4d	4b-
8FL	4A	4f	4cc
8E-XJ	.	.	.
8DL	4B-	4f	4dd
8CJ	.	.	.
8BB-L	4c	4f	4ee-
8AAJ	.	.	.
=4	=4	=4	=4
4BB-	8cL	4f	4dd
.	8B-J	.	.
4FF	8B-L	4f	4cc
.	8AJ	.	.
2BB-;	2d;	2f;	2b-;
=5:|!	=5:|!	=5:|!	=5:|!
*>B	*>B	*>B	*>B
8B-L	4f	4b-	4dd
8AJ	.	.	.
4G	4g	4b-	4ee-
4F	8cL	4a	4ff
.	8dJ	.	.
4C	4e-	8gL	4ee-
.	.	8aJ	.
=6	=6	=6	=6
8DL	4f	4b-	4dd
8E-J	.	.	.
4F	4f	4a	4cc
2BB-;	2f;	2b-;	2dd;
=7	=7	=7	=7
8BB-L	4d	4b-	4ff
8CJ	.	.	.
8DL	4d	4b-	4ff
8BB-J	.	.	.
8E-L	4d	4b-	4gg
8DJ	.	.	.
8E-L	4c	4a	4ff
8FJ	.	.	.
=8	=8	=8	=8
8GL	4B-	4g	4ee-
8AJ	.	.	.
4B-	4B-	4f	4dd
2F;	2A;	2f;	2cc;
=9	=9	=9	=9
4B-	8B-L	4f	8ddL
.	8cJ	.	8ee-J
4BB-	[4d	8b-L	4ff
.	.	8a-J	.
4C	8d]	4g	4ee-
.	4c	.	.
4D	.	4f	4dd
.	[8B-	.	.
=10	=10	=10	=10
4E-	8B-L]	8gL	4b-
.	8AnXJ	8f#J	.
4E-	8GL	[4g	4cc
.	8AJ	.	.
2D	8B-L	8gL]	2dd
.	16AL	16f#L	.
.	16GJJ	16eJJ	.
.	4A	4f#	.
=11	=11	=11	=11
2G;	2G;	2d;	2b-;
8GL	4B-	4g	4dd
8FnXJ	.	.	.
8E-L	4B-	4a-	4ff
8DJ	.	.	.
=12	=12	=12	=12
8E-L	4B-	4g	4ee-
8FJ	.	.	.
8GL	4B-	8dL	4dd
8FJ	.	8e-J	.
8E-L	4AnX	4f	4cc
8DJ	.	.	.
8CL	[4B-	4f	4dd
8BB-J	.	.	.
=13	=13	=13	=13
2F	8B-L]	2f	2cc
.	16AL	.	.
.	16GJJ	.	.
.	4A	.	.
2BB-;	2d;	2f;	2b-;
==	==	==	==
*-	*-	*-	*-
!!!hum2abc: -Q ''
!!!title: @{PC#}. @{OTL@@DE}
!!!YOR1: 371 vierstimmige Choralges&auml;nge von Johann Sebastian Bach, 
!!!YOR2: 4th ed. by Alfred D&ouml;rffel (Leipzig: Breitkopf und H&auml;rtel, 
!!!YOR2: c.1875). 178 pp. Plate "V.A.10".  reprint: J.S. Bach, 371 Four-Part 
!!!YOR4: Chorales (New York: Associated Music Publishers, Inc., c.1940).
!!!SMS: B&H, 4th ed, Alfred D&ouml;rffel, c.1875, plate V.A.10
!!!EED:  Craig Stuart Sapp
!!!EEV:  2009/05/22
